src/assets/filled/Scroll.svg

<?xml version="1.0" encoding="UTF-8"?>
<svg width="24" height="24" viewBox="0 0 24 24" xmlns="http://www.w3.org/2000/svg">
 <path d="m16.19 2h-8.38c-3.64 0-5.81 2.17-5.81 5.81v8.37c0 3.65 2.17 5.82 5.81 5.82h8.37c3.64 0 5.81-2.17 5.81-5.81v-8.38c0.01-3.64-2.16-5.81-5.8-5.81zm-6.06 12.5c0.29 0.29 0.29 0.77 0 1.06-0.15 0.15-0.34 0.22-0.53 0.22s-0.38-0.07-0.53-0.22l-2.49-2.49c-0.59-0.59-0.59-1.54 0-2.13l2.49-2.49c0.29-0.29 0.77-0.29 1.06 0s0.29 0.77 0 1.06l-2.49 2.49 2.49 2.5zm7.29-1.44-2.49 2.49c-0.15 0.15-0.34 0.22-0.53 0.22s-0.38-0.07-0.53-0.22c-0.29-0.29-0.29-0.77 0-1.06l2.49-2.49-2.49-2.5c-0.29-0.29-0.29-0.77 0-1.06s0.77-0.29 1.06 0l2.49 2.49c0.59 0.59 0.59 1.55 0 2.13z"/>
</svg>

<svg width="24" height="24" viewBox="0 0 24 24"  xmlns="http://www.w3.org/2000/svg">
<path d="M16.19 2H7.81C4.17 2 2 4.17 2 7.81V16.18C2 19.83 4.17 22 7.81 22H16.18C19.82 22 21.99 19.83 21.99 16.19V7.81C22 4.17 19.83 2 16.19 2ZM10.13 14.5C10.42 14.79 10.42 15.27 10.13 15.56C9.98 15.71 9.79 15.78 9.6 15.78C9.41 15.78 9.22 15.71 9.07 15.56L6.58 13.07C5.99 12.48 5.99 11.53 6.58 10.94L9.07 8.45C9.36 8.16 9.84 8.16 10.13 8.45C10.42 8.74 10.42 9.22 10.13 9.51L7.64 12L10.13 14.5ZM17.42 13.06L14.93 15.55C14.78 15.7 14.59 15.77 14.4 15.77C14.21 15.77 14.02 15.7 13.87 15.55C13.58 15.26 13.58 14.78 13.87 14.49L16.36 12L13.87 9.5C13.58 9.21 13.58 8.73 13.87 8.44C14.16 8.15 14.64 8.15 14.93 8.44L17.42 10.93C18.01 11.52 18.01 12.48 17.42 13.06Z" />
</svg>
